X: 4798
T: Boys Of The Lough, The
R: reel
M: 4/4
K: Dmajor
dB|:AF ~F2 AFAB|defd {c}BABc|AF ~F2 dFcF|EDEF E2 dB|
AF ~F2 AFAB|defd ecdB|AF (3FFF dFcF|1 EDEF D2 dB:|2 GFEG FD Ag||
|:fg (3agf gfec|defd ec{e}dB|AF ~F2 dFcF|EDEF EGFE|
A2 af gfec|decd BcdB|AF (3FFF dFcF|1 GFEG FDAg:|2 GFEG F D3||

